humanity-icon-theme/Humanity/apps/64/preferences-desktop-accessibility.svg

<?xml version="1.0" encoding="UTF-8" standalone="no"?>
<!-- Created with Inkscape (http://www.inkscape.org/) -->
<svg
   xmlns:svg="http://www.w3.org/2000/svg"
   xmlns="http://www.w3.org/2000/svg"
   xmlns:xlink="http://www.w3.org/1999/xlink"
   version="1.0"
   width="64"
   height="64"
   id="svg2522">
  <defs
     id="defs2524">
    <linearGradient
       id="linearGradient8838">
      <stop
         id="stop8840"
         style="stop-color:#000000;stop-opacity:1"
         offset="0" />
      <stop
         id="stop8842"
         style="stop-color:#000000;stop-opacity:0"
         offset="1" />
    </linearGradient>
    <radialGradient
       cx="62.625"
       cy="4.625"
       r="10.625"
       fx="62.625"
       fy="4.625"
       id="radialGradient2507"
       xlink:href="#linearGradient8838"
       gradientUnits="userSpaceOnUse"
       gradientTransform="matrix(2.9176471,0,0,0.988234,-150.71765,48.92941)" />
    <linearGradient
       id="linearGradient2490-182-124">
      <stop
         id="stop2788"
         style="stop-color:#1f4b6a;stop-opacity:1"
         offset="0" />
      <stop
         id="stop2790"
         style="stop-color:#4083c2;stop-opacity:1"
         offset="1" />
    </linearGradient>
    <linearGradient
       x1="18.379412"
       y1="44.980297"
       x2="18.379412"
       y2="3.0816143"
       id="linearGradient2504"
       xlink:href="#linearGradient2490-182-124"
       gradientUnits="userSpaceOnUse"
       gradientTransform="matrix(1.2533672,0,0,1.2533674,1.919184,3.9191687)" />
    <linearGradient
       id="linearGradient3242-187-536">
      <stop
         id="stop2778"
         style="stop-color:#8badea;stop-opacity:1"
         offset="0" />
      <stop
         id="stop2780"
         style="stop-color:#6396cd;stop-opacity:1"
         offset="0.26238" />
      <stop
         id="stop2782"
         style="stop-color:#3b7caf;stop-opacity:1"
         offset="0.66093999" />
      <stop
         id="stop2784"
         style="stop-color:#194c70;stop-opacity:1"
         offset="1" />
    </linearGradient>
    <radialGradient
       cx="23.895569"
       cy="3.9900031"
       r="20.397499"
       fx="23.895569"
       fy="3.9900031"
       id="radialGradient2502"
       xlink:href="#linearGradient3242-187-536"
       gradientUnits="userSpaceOnUse"
       gradientTransform="matrix(0,2.9913581,-3.9485396,0,47.754682,-64.903143)" />
    <linearGradient
       id="linearGradient4873">
      <stop
         id="stop4875"
         style="stop-color:#ffffff;stop-opacity:1"
         offset="0" />
      <stop
         id="stop4877"
         style="stop-color:#ffffff;stop-opacity:0"
         offset="1" />
    </linearGradient>
    <linearGradient
       x1="63.397362"
       y1="-12.489107"
       x2="63.397362"
       y2="5.4675598"
       id="linearGradient2499"
       xlink:href="#linearGradient4873"
       gradientUnits="userSpaceOnUse"
       gradientTransform="matrix(2.8014404,0,0,2.8013767,-142.25072,43.835172)" />
  </defs>
  <g
     id="layer1">
    <path
       d="M 63,53.499998 C 63,59.298988 49.120825,63.999998 32,63.999998 C 14.879175,63.999998 1,59.298988 1,53.499998 C 1,47.701008 14.879175,42.999998 32,42.999998 C 49.120825,42.999998 63,47.701008 63,53.499998 L 63,53.499998 z"
       id="path8836"
       style="opacity:0.3;fill:url(#radialGradient2507);fill-opacity:1;fill-rule:evenodd;stroke:none;stroke-width:0.99999988;stroke-linecap:butt;stroke-linejoin:round;marker:none;marker-start:none;marker-mid:none;marker-end:none;stroke-miterlimit:4;stroke-dasharray:none;stroke-dashoffset:0;stroke-opacity:1;visibility:visible;display:inline;overflow:visible" />
    <path
       d="M 32.000001,8.501793 C 17.93098,8.501793 6.5018092,19.930961 6.5018092,33.999983 C 6.5018092,48.069004 17.93098,59.498177 32.000001,59.498173 C 46.069017,59.498173 57.498201,48.069004 57.498188,33.999983 C 57.498188,19.930961 46.069017,8.501793 32.000001,8.501793 z"
       id="path2555"
       style="fill:url(#radialGradient2502);fill-opacity:1;stroke:url(#linearGradient2504);stroke-width:1;stroke-linecap:round;stroke-linejoin:round;stroke-miterlimit:4;stroke-dasharray:none;stroke-dashoffset:0;stroke-opacity:1" />
    <path
       d="M 56.499998,33.999131 C 56.499998,47.530543 45.530168,58.499998 32.000309,58.499998 C 18.469211,58.499998 7.4999998,47.530419 7.4999998,33.999131 C 7.4999998,20.468344 18.469211,9.5000007 32.000309,9.5000007 C 45.530168,9.5000007 56.499998,20.468344 56.499998,33.999131 L 56.499998,33.999131 z"
       id="path8655"
       style="opacity:0.4;fill:none;fill-opacity:1;fill-rule:nonzero;stroke:url(#linearGradient2499);stroke-width:0.99999994;stroke-miterlimit:4;stroke-dasharray:none;stroke-opacity:1" />
    <path
       d="M 36.058469,20.893267 C 36.058469,23.04235 34.322415,24.786534 32.183349,24.786534 C 30.044282,24.786534 28.308227,23.04235 28.308227,20.893267 C 28.308227,18.744183 30.044282,16.999999 32.183349,16.999999 C 34.322415,16.999999 36.058469,18.744183 36.058469,20.893267 z M 45.730233,25.033072 C 45.551001,25.062249 45.381644,25.133272 45.236493,25.240258 L 31.999596,27.314084 L 18.833991,25.211658 C 18.493659,24.963662 18.015169,24.8894 17.634889,25.073519 C 17.254607,25.257636 17.005307,25.694025 17.000064,26.109281 C 16.995264,26.524592 17.259336,26.882755 17.634889,27.076004 L 27.951425,30.364027 L 27.880864,37.91222 L 24.240576,49.216979 C 23.889971,49.73175 23.996831,50.392861 24.52272,50.736049 C 25.048632,51.079287 25.794422,50.974706 26.145062,50.459876 L 32.019756,38.257492 L 37.783557,50.438788 C 38.095221,50.972719 38.789961,51.158194 39.335351,50.853103 C 39.880741,50.548016 40.070221,49.867912 39.758568,49.333977 L 36.185851,37.980585 L 36.044801,30.874473 L 46.506093,27.03556 C 46.928771,26.745396 47.112395,26.196071 46.929324,25.723616 C 46.746238,25.251111 46.243103,24.97582 45.730198,25.033072 L 45.730233,25.033072 z"
       id="path2520"
       style="fill:#1f4b6b;fill-opacity:1;stroke:none" />
    <path
       d="M 36.058469,21.893268 C 36.058469,24.042351 34.322415,25.786535 32.183349,25.786535 C 30.044282,25.786535 28.308227,24.042351 28.308227,21.893268 C 28.308227,19.744184 30.044282,18 32.183349,18 C 34.322415,18 36.058469,19.744184 36.058469,21.893268 z M 45.730233,26.033073 C 45.551001,26.06225 45.381644,26.133273 45.236493,26.240259 L 31.999596,28.314085 L 18.833991,26.211659 C 18.493659,25.963663 18.015169,25.889401 17.634889,26.07352 C 17.254607,26.257637 17.005307,26.694026 17.000064,27.109282 C 16.995264,27.524593 17.259336,27.882756 17.634889,28.076005 L 27.951425,31.364028 L 27.880864,38.912221 L 24.240576,50.21698 C 23.889971,50.731751 23.996831,51.392862 24.52272,51.73605 C 25.048632,52.079288 25.794422,51.974707 26.145062,51.459877 L 32.019756,39.257493 L 37.783557,51.438789 C 38.095221,51.97272 38.789961,52.158195 39.335351,51.853104 C 39.880741,51.548017 40.070221,50.867913 39.758568,50.333978 L 36.185851,38.980586 L 36.044801,31.874474 L 46.506093,28.035561 C 46.928771,27.745397 47.112395,27.196072 46.929324,26.723617 C 46.746238,26.251112 46.243103,25.975821 45.730198,26.033073 L 45.730233,26.033073 z"
       id="path6668"
       style="fill:#ffffff;fill-opacity:1;stroke:none" />
  </g>
</svg>

<?xml version="1.0" encoding="UTF-8" standalone="no"?>
<!-- Created with Inkscape (http://www.inkscape.org/) -->
<svg id="svg2522" xmlns="http://www.w3.org/2000/svg" height="64" width="64" version="1.0" xmlns:xlink="http://www.w3.org/1999/xlink">
 <defs id="defs2524">
  <radialGradient id="radialGradient2507" gradientUnits="userSpaceOnUse" cy="4.625" cx="62.625" gradientTransform="matrix(2.9176 0 0 .98823 -150.72 48.929)" r="10.625">
   <stop id="stop8840" offset="0"/>
   <stop id="stop8842" style="stop-opacity:0" offset="1"/>
  </radialGradient>
  <linearGradient id="linearGradient2504" y2="3.0816" gradientUnits="userSpaceOnUse" x2="18.379" gradientTransform="matrix(1.2534 0 0 1.2534 1.9192 3.9192)" y1="44.98" x1="18.379">
   <stop id="stop2788" style="stop-color:#1f4b6a" offset="0"/>
   <stop id="stop2790" style="stop-color:#4083c2" offset="1"/>
  </linearGradient>
  <radialGradient id="radialGradient2502" gradientUnits="userSpaceOnUse" cy="3.99" cx="23.896" gradientTransform="matrix(0 2.9914 -3.9485 0 47.755 -64.903)" r="20.397">
   <stop id="stop2778" style="stop-color:#8badea" offset="0"/>
   <stop id="stop2780" style="stop-color:#6396cd" offset=".26238"/>
   <stop id="stop2782" style="stop-color:#3b7caf" offset=".66094"/>
   <stop id="stop2784" style="stop-color:#194c70" offset="1"/>
  </radialGradient>
  <linearGradient id="linearGradient2499" y2="5.4676" gradientUnits="userSpaceOnUse" x2="63.397" gradientTransform="matrix(2.8014 0 0 2.8014 -142.25 43.835)" y1="-12.489" x1="63.397">
   <stop id="stop4875" style="stop-color:#fff" offset="0"/>
   <stop id="stop4877" style="stop-color:#fff;stop-opacity:0" offset="1"/>
  </linearGradient>
 </defs>
 <g id="layer1">
  <path id="path8836" style="opacity:.3;fill-rule:evenodd;fill:url(#radialGradient2507)" d="m63 53.5c0 5.799-13.879 10.5-31 10.5s-31-4.701-31-10.5 13.879-10.5 31-10.5 31 4.701 31 10.5z"/>
  <path id="path2555" style="stroke-linejoin:round;stroke:url(#linearGradient2504);stroke-linecap:round;fill:url(#radialGradient2502)" d="m32 8.5018c-14.069 0-25.498 11.429-25.498 25.498-0.0002 14.069 11.429 25.498 25.498 25.498s25.498-11.429 25.498-25.498-11.429-25.498-25.498-25.498z"/>
  <path id="path8655" style="opacity:.4;stroke:url(#linearGradient2499);fill:none" d="m56.5 33.999c0 13.532-10.97 24.501-24.5 24.501-13.531 0-24.5-10.97-24.5-24.501s10.969-24.499 24.5-24.499c13.53 0 24.5 10.968 24.5 24.499z"/>
  <path id="path2520" style="fill:#1f4b6b" d="m36.058 20.893c0 2.149-1.736 3.894-3.875 3.894s-3.875-1.745-3.875-3.894 1.736-3.893 3.875-3.893 3.875 1.744 3.875 3.893zm9.672 4.14c-0.179 0.029-0.348 0.1-0.494 0.207l-13.236 2.074-13.166-2.102c-0.34-0.248-0.819-0.323-1.199-0.138-0.38 0.184-0.63 0.62-0.635 1.035-0.005 0.416 0.259 0.774 0.635 0.967l10.316 3.288-0.07 7.548-3.64 11.305c-0.351 0.515-0.244 1.176 0.282 1.519s1.271 0.239 1.622-0.276l5.875-12.203 5.764 12.182c0.311 0.534 1.006 0.719 1.551 0.414 0.546-0.305 0.735-0.985 0.424-1.519l-3.573-11.353-0.141-7.107 10.461-3.838c0.423-0.291 0.606-0.84 0.423-1.312-0.183-0.473-0.686-0.748-1.199-0.691z"/>
  <path id="path6668" style="fill:#fff" d="m36.058 21.893c0 2.149-1.736 3.894-3.875 3.894s-3.875-1.745-3.875-3.894 1.736-3.893 3.875-3.893 3.875 1.744 3.875 3.893zm9.672 4.14c-0.179 0.029-0.348 0.1-0.494 0.207l-13.236 2.074-13.166-2.102c-0.34-0.248-0.819-0.323-1.199-0.138-0.38 0.184-0.63 0.62-0.635 1.035-0.005 0.416 0.259 0.774 0.635 0.967l10.316 3.288-0.07 7.548-3.64 11.305c-0.351 0.515-0.244 1.176 0.282 1.519s1.271 0.239 1.622-0.276l5.875-12.203 5.764 12.182c0.311 0.534 1.006 0.719 1.551 0.414 0.546-0.305 0.735-0.985 0.424-1.519l-3.573-11.353-0.141-7.107 10.461-3.838c0.423-0.291 0.606-0.84 0.423-1.312-0.183-0.473-0.686-0.748-1.199-0.691z"/>
 </g>
</svg>
